X: 1
A:Adam de la Halle
T:A Dieu comant amouretes
N: (condensed)
M:3/4
L:1/4
Q:1/4=110
K:F Lydian
%
V:1 clef=treble
V:2 clef=treble-8 middle=B,
V:3 clef=treble-8 middle=B,
%%MIDI program 1       70 bassoon
%%MIDI program 2       71 clarinet
%%MIDI program 3       72 piccolo
%
[V:1]     F2  (F/4E/4D/)|(C/B,/A,) B,       |(CD) (E/F/)| G   G  (F/G/)  | A2     (G/4F/4E/)|(D/C/D E)||
[V:2]     C2   D        | E2      (E/4D/4C/)| F2   E    | D   E   F      |(E/D/E) (E/4D/4C/)| B,3     ||
[V:3]     F,2  F,       | A,2      A,       | F,2  F,   | G,  G, (F,/G,/)| A,2     A,       | G,3     ||
